X: 10088
T: Diddley-i-Pod, The
R: jig
M: 6/8
K: Gmajor
e|:d2G edB|d2G G2e|d2G edB|A3 ABc|
d2G e2d|B2G G2e|dBG A2F|1 G3- GBc:|2 G3- GFE||
|:DGB BcA|B2G DGB|BcA B/c/dB|A3 AGA|
BcA BcA|B2G D3|DEG A2F|1 G3- GFE:|2 G3- GB/c/d||
|:e3 edB|dBG G2D|GBd edB|A3- ABd|
[1 e3 efg|e3 efg|efg a2f|g3-gBd:|
[2 e3 efg|efg e3|efg a2f|g3-g2e||

